X: 26
T:Marchiña
M:2/4
L:1/16
Q:200
C:Trad
S:X.L.Foxo (la otra versión es repitiendo cada parte)
R:Marcha
K:D
D3E |: F4D4- | D4 {c}E3F | G4E4- | E4 {c} F3G | A6 F2 | G6E2|
FGFE D4- |1 D4 {B} D3E :|2 D2{B}D2 F2B2 |: A6F2 | G6 E2 | FGFE D4- | D2E
2 F2G2 |
EFED C4- |1 C2D2 E2G2 | FGFE D4- | D2{B}D2 F2B2 :|2 C2D2 E2F2 | D4 {B} D
3{E}D | {B}D4 ||

